src/icons/svg/QuestionFilled.svg

<!-- Generated by IcoMoon.io -->
<svg version="1.1" xmlns="http://www.w3.org/2000/svg" width="24" height="24" viewBox="0 0 24 24">
<title>question-filled</title>
<path fill="#444" d="M11.854 0.962c-6.098 0.082-10.974 5.090-10.892 11.188 0.082 6.094 5.090 10.972 11.188 10.89 6.095-0.082 10.973-5.090 10.89-11.188-0.080-6.094-5.089-10.972-11.186-10.89zM11.822 18.72h-0.062c-0.938-0.028-1.601-0.72-1.574-1.645 0.026-0.908 0.704-1.57 1.613-1.57l0.056 0.002c0.965 0.028 1.62 0.714 1.591 1.666-0.026 0.91-0.694 1.548-1.624 1.548zM15.77 10.882c-0.222 0.313-0.707 0.704-1.319 1.18l-0.674 0.466c-0.37 0.288-0.592 0.558-0.676 0.823-0.068 0.212-0.098 0.265-0.104 0.692l-0.002 0.11h-2.572l0.007-0.218c0.032-0.895 0.054-1.42 0.425-1.856 0.582-0.683 1.866-1.51 1.92-1.544 0.184-0.139 0.338-0.296 0.455-0.464 0.27-0.372 0.389-0.666 0.389-0.953 0-0.4-0.119-0.769-0.352-1.098-0.226-0.318-0.654-0.479-1.274-0.479-0.614 0-1.034 0.196-1.286 0.596-0.26 0.412-0.39 0.842-0.39 1.284v0.11h-2.652l0.005-0.116c0.068-1.624 0.648-2.794 1.723-3.476 0.674-0.436 1.514-0.655 2.494-0.655 1.282 0 2.368 0.312 3.22 0.926 0.864 0.623 1.302 1.556 1.302 2.774 0 0.682-0.215 1.322-0.638 1.902z"></path>
</svg>

<svg width="24" height="24" viewBox="0 0 24 24" fill="none" xmlns="http://www.w3.org/2000/svg">
<path d="M11.854 0.962002C5.75596 1.044 0.879957 6.052 0.961957 12.15C1.04396 18.244 6.05196 23.122 12.15 23.04C18.245 22.958 23.123 17.95 23.04 11.852C22.96 5.758 17.951 0.880002 11.854 0.962002V0.962002ZM11.822 18.72H11.76C10.822 18.692 10.159 18 10.186 17.075C10.212 16.167 10.89 15.505 11.799 15.505L11.855 15.507C12.82 15.535 13.475 16.221 13.446 17.173C13.42 18.083 12.752 18.721 11.822 18.721V18.72ZM15.77 10.882C15.548 11.195 15.063 11.586 14.451 12.062L13.777 12.528C13.407 12.816 13.185 13.086 13.101 13.351C13.033 13.563 13.003 13.616 12.997 14.043L12.995 14.153H10.423L10.43 13.935C10.462 13.04 10.484 12.515 10.855 12.079C11.437 11.396 12.721 10.569 12.775 10.535C12.959 10.396 13.113 10.239 13.23 10.071C13.5 9.699 13.619 9.405 13.619 9.118C13.619 8.718 13.5 8.349 13.267 8.02C13.041 7.702 12.613 7.541 11.993 7.541C11.379 7.541 10.959 7.737 10.707 8.137C10.447 8.549 10.317 8.979 10.317 9.421V9.531H7.66496L7.66996 9.415C7.73796 7.791 8.31796 6.621 9.39296 5.939C10.067 5.503 10.907 5.284 11.887 5.284C13.169 5.284 14.255 5.596 15.107 6.21C15.971 6.833 16.409 7.766 16.409 8.984C16.409 9.666 16.194 10.306 15.771 10.886L15.77 10.882Z" fill="#1C2125"/>
</svg>
